X:5947
T:Gan Ainm
R:strathspey
S:Natalie McMasters
H:
N:
D:Solo Album #1
Z:Adrian Scahill
M:4/4
L:1/8
K:A
ec|d>cB>A A<c EA|FAdf f<e (3efg|aefa (3efe d<c|c>B A<c B2ec|\
d>cB>A A<c EA|FAdf f<a gf|e<a Ac Bfed|1 c2 A2 A2ec:|2 c2 A2 A2 (3efg||\
aef<a c<eAc|dAdf f<e (3efg|ae f<a (3efe d<c|c>BA>c B2(3efg|\
1 aef<a c<eAc|dAdf f<a gf|e<a Ac Bfed|c2 A2 A2 (3efg:|2 d>cB>A A<c EA|FAdf f<a gf|e<a Ac Bfed| c2 A2 A4||
